Obsidian-SemiLight/actions/16s/format-font-size-more.svg

<svg viewBox="0 0 16 16" xmlns="http://www.w3.org/2000/svg"><path d="m6.3828125 2-4.3828125 11h1.3574219l1.1894531-3h2.453125 2.5214844l1.1894536 3h1.357421l-4.3828121-11h-.6855469zm6.1171875 0-.21875.1875-2.28125 2.3125v1.40625l2-2v3.09375h1v-3.09375l2 2v-1.40625l-2.28125-2.3125zm-5.4941406 1.328125 2.1210937 5.671875h-2.1269531-2.0585938c-.00124.00746 2.0644532-5.671875 2.0644532-5.671875z" fill="#4d4d4d"/></svg>

<svg xmlns="http://www.w3.org/2000/svg" viewBox="0 0 16 16">
  <defs id="defs3051">
    <style type="text/css" id="current-color-scheme">
      .ColorScheme-Text {
        color:#4d4d4d;
      }
      </style>
  </defs>
 <path style="fill:currentColor;fill-opacity:1;stroke:none" 
       d="M 6.3828125 2 L 2 13 L 3.3574219 13 L 4.546875 10 L 7 10 L 9.5214844 10 L 10.710938 13 L 12.068359 13 L 7.6855469 2 L 7 2 L 6.3828125 2 z M 12.5 2 L 12.28125 2.1875 L 10 4.5 L 10 5.90625 L 12 3.90625 L 12 7 L 13 7 L 13 3.90625 L 15 5.90625 L 15 4.5 L 12.71875 2.1875 L 12.5 2 z M 7.0058594 3.328125 L 9.1269531 9 L 7 9 L 4.9414062 9 C 4.9401662 9.00746 7.0058594 3.328125 7.0058594 3.328125 z "
     class="ColorScheme-Text"
     />
</svg>
